X: 4
T: Swinging On The Gate
R: reel
M: 4/4
L: 1/8
K: Gmaj
gedB G2 AB | cABG AGEG | DGBd g2 g/f/e | fgag fdef |gedB G/G/G AB | c2 B/A/G AGEG | cABG AGEG | DGGF G2 :|gfga bagf | gfed B2 AG | E2 AB cBAG | E2 G/A/B cdef |g2 ga bagf | g2 f/e/d ed B/c/d | c2 BG AG E/F/G | DGGF G2 :|


Tune 236	Setting 12936

